icons/core/home.svg

<svg width="32" height="32" viewBox="0 0 32 32" xmlns="http://www.w3.org/2000/svg"><path fill-rule="evenodd" clip-rule="evenodd" d="M16.5914 2.19358L16.0001 1.75992L15.4087 2.19358L0.408691 13.1936L1.59142 14.8064L4.00006 13.0401V26C4.00006 27.1046 4.89549 28 6.00006 28H12.0001C13.1046 28 14.0001 27.1046 14.0001 26V19H18.0001V26C18.0001 27.1046 18.8955 28 20.0001 28H26.0001C27.1046 28 28.0001 27.1046 28.0001 26V13.0401L30.4087 14.8064L31.5914 13.1936L16.5914 2.19358ZM26.0001 11.5734L16.0001 4.24006L6.00006 11.5734V26H12.0001V19C12.0001 17.8954 12.8955 17 14.0001 17H18.0001C19.1046 17 20.0001 17.8954 20.0001 19V26H26.0001V11.5734Z"/></svg>

<svg viewBox="0 0 32 32" xmlns="http://www.w3.org/2000/svg"><path fill-rule="evenodd" d="M16.591 2.194l-.59-.434-.592.434-15 11 1.182 1.612 2.41-1.766V26a2 2 0 002 2h6a2 2 0 002-2v-7h4v7a2 2 0 002 2h6a2 2 0 002-2V13.04l2.408 1.766 1.182-1.612-15-11zm9.41 9.38L16 4.24 6 11.573V26h6v-7a2 2 0 012-2h4a2 2 0 012 2v7h6V11.573z"/></svg>
